X:1
T:The Mist Covered Mountain
R:jig
M:6/8
L:1/8
K:Ador
|:EAA ABd|eAA AGE|~G2G GAB|dBA GED|
|EAA ABd|eAA Bcd|efg dBG|1 BAG ~A2G:|2 BAG ~A2A|]
|age ~a2b|age edB|AGE ~G2A|BAB deg|
|age ~a2b|age edB|AGE ~G2A|BAG ~A2A|
|age ~a2b|age edB|AGE ~G2A|BAB GED|
|EDE ~G2A|BAG Bcd|efg dBG|BAG ~A2G|